Sources/FrostedUI/Resources/Icons.xcassets/stickerFilled12.imageset/sticker-filled-12.svg

<svg width="12" height="12" viewBox="0 0 12 12" fill="none" xmlns="http://www.w3.org/2000/svg" data-fui-icon="true">
  <g clip-path="url(#clip0_6194_369)">
    <path
      d="M7.20279 0.146007C8.97849 -0.263838 10.7503 0.84329 11.1603 2.61894L11.4768 3.98975C11.5132 4.1476 11.4148 4.30511 11.257 4.34155L8.19719 5.04795C6.81622 5.36692 5.95518 6.74487 6.27387 8.1259L6.98028 11.1857C7.01672 11.3435 6.9183 11.501 6.76045 11.5375L5.38964 11.8539C3.61394 12.2638 1.84217 11.1567 1.43212 9.38101L0.442246 5.0934C0.0324013 3.3177 1.13953 1.54593 2.91518 1.13588L7.20279 0.146007ZM11.167 5.90178C11.3673 5.85552 11.5514 6.02454 11.5111 6.2262C11.1641 7.96249 10.1941 9.51494 8.78561 10.5879C8.62203 10.7126 8.38941 10.6212 8.34315 10.4208L7.73543 7.78847C7.60309 7.21464 7.96084 6.64212 8.53461 6.50951L11.167 5.90178Z"
      fill="currentColor"
    />
  </g>
  <defs>
    <clipPath id="clip0_6194_369"><path fill="currentColor" d="M0 0H12V12H0z" /></clipPath>
  </defs>
</svg>

<svg xmlns="http://www.w3.org/2000/svg" width="12" height="12" fill="none" data-fui-icon="true" viewBox="0 0 12 12"><g clip-path="url(#a)"><path fill="currentColor" d="M7.203.146a3.3 3.3 0 0 1 3.957 2.473l.317 1.37a.293.293 0 0 1-.22.353l-3.06.706a2.567 2.567 0 0 0-1.923 3.078l.706 3.06a.293.293 0 0 1-.22.351l-1.37.317A3.3 3.3 0 0 1 1.432 9.38l-.99-4.288a3.3 3.3 0 0 1 2.473-3.957zm3.964 5.756a.28.28 0 0 1 .344.324 7.28 7.28 0 0 1-2.725 4.362.28.28 0 0 1-.443-.167l-.608-2.633a1.067 1.067 0 0 1 .8-1.278z"/></g><defs><clipPath id="a"><path fill="currentColor" d="M0 0h12v12H0z"/></clipPath></defs></svg>
